X:1
T:Boundless Mercy, 76.76 D
T:Boundless Mercy, 76.76 D
T:From Union Harmony, by Oliver Holden, 1793
T:Public Domain Courtesy of the Cyber Hymnal™
C:From Union Harmony, by Oliver Holden, 1793
Z:Public Domain
Z:Courtesy of the Cyber Hymnal™
%%score ( 1 2 ) ( 3 4 )
L:1/8
Q:1/4=115
M:4/4
K:F
V:1 treble 
V:2 treble 
V:3 bass 
V:4 bass 
V:1
 [CF]2 [CF]2 | [CG]2 [CG]2 [CA]2 (cA) | [EG]4 F2 F2 | [DA]2 [DA]2 [CG]4 | [CF]4 [CF]2 [CF]2 | %5
 [CG]2 [CG]2 [CA]2 (cA) | [EG]4 F2 F2 | [DA]2 [DA]2 [CG]4 | [CF]4 [FA]2 [Ac]2 | %9
 [Ac]2 [Ac]2 [FA]2 ([Ac][FA]) | [EG]4 [FA]2 [Ac]2 | [Ac]2 ([FA][EG]) [FA]4 | [EG]4 [CF]2 [CF]2 | %13
 [CG]2 [CG]2 [CA]2 (cA) | [EG]4 F2 F2 | [DA]2 [DA]2 [CG]4 | [CF]4 |] %17
V:2
 x4 | x6 C2 | x4 F2 F2 | x8 | x8 | x6 C2 | x4 F2 F2 | x8 | x8 | x8 | x8 | x8 | x8 | x6 C2 | %14
 x4 F2 F2 | x8 | x4 |] %17
V:3
 F,2 F,2 | [C,C]2 [C,C]2 [A,,A,]2 ([G,,G,][F,,F,]) | [C,C]4 [F,C]2 F,2 | %3
 [D,A,]2 [D,A,]2 (C2 A,[D,G,]) | F,4 F,2 F,2 | [C,C]2 [C,C]2 [A,,A,]2 ([G,,G,][F,,F,]) | %6
 [C,C]4 [F,C]2 F,2 | [D,A,]2 [D,A,]2 (C2 A,[D,G,]) | F,4 [F,C]2 [F,A,]2 | %9
 [F,A,]2 [F,A,]2 (F,G,) A,2 | [C,C]4 [F,C]2 [F,A,]2 | [F,A,]2 ([D,A,][C,C]) [A,,D]4 | %12
 [C,C]4 F,2 F,2 | [C,C]2 [C,C]2 [A,,A,]2 ([G,,G,][F,,F,]) | [C,C]4 [F,C]2 F,2 | %15
 [D,A,]2 [D,A,]2 (A,2 G,[B,,F,]) | F,4 |] %17
V:4
 F,2 F,2 | x8 | x6 F,2 | x4 C,3 x | F,4 F,2 F,2 | x8 | x6 F,2 | x4 C,3 x | F,4 x4 | %9
 x4 D,2 (C,A,,) | x8 | x8 | x4 F,2 F,2 | x8 | x6 F,2 | x4 C,3 x | F,4 |] %17

